X:6
T:Lady Beatrice Hamilton
B:William Marshall Volume 2nd Of A Collection Of Scottish Melodies (1845)
C:William Marshall
L:1/8
M:C
O:Scotland
R:Reel
Z:Clark Bernst + Richard Robinson
%%Page:2 - 2
F:http://richardrobinson.tunebook.org.uk/tune/4070
%%TBL:{"version":1,"type":"tune","id":"4070"}
K:F
%%staves {1 2}
V:1
FAcA fAcA | FAcA (dc)(BA) | FAcA fAcA | Ggbg (!trill!fe)(dc) :: \
Ffef dfcf | 
                  cfaf (dc)(BA) |1 \
Gg^fg    dgBg   | dgbg (!trill!fe)(dc) :|2 \
[Fd]BBd [Fc]AAc | Ggbg (!trill!fe)(dc) |]
V:2 middle=d clef=bass
L:1/4
[Ff] [Ff] [Ff] [Ff] | [Ff] [Ff] [Ff] [Ff]  | \
[Ff] [Ff] [Ff] [Ff] | [Bb] [Gg] [cc'] [cb] :: \
[Ff] [fa] [fb] [fa] | x3 d'/c'/  & [F,A,] [F,A,] [F,A,] F, & |1 \
[bd'] [bd'] [gbd'] [gbd'] | [gbd'] [gbd'] [gbc'] [gbc'] :|2\
[Bb] [Bb] [Ff] [Ff] | [Bb] [Gg] [cc'] [cc'] |]

